X:1
T:Title
%%score { ( 1 4 ) | ( 2 3 ) }
L:1/8
Q:1/4=100
M:4/4
K:G
V:1 treble nm="Grand Piano"
V:4 treble 
V:2 bass 
V:3 bass 
V:1
 B3 B A2 G2 | [DF]2 [CE]2 [B,D]4 | [CE]3 [DF] [EA]2 [DF]E | [A,DF]2 [B,DG]2 [DFA]4 | %4
w: D.~B.~Towner * * *||||
 [DGB]3 [DGB] [CDA]2 [B,DG]2 | [A,DF]2 [G,CE]2 [G,B,D]4 | [G,CE]3 [G,DF] [DG]-[B,DG] D2 | %7
w: |||
 A2 AB [B,G]4 | [Ec]3 [Ec] [Ec]2 [CE]2 | [B,D][B,G][DG]A B4 | A3 A A2 FA | %11
w: ||||
 [^CA][CG][CF][CE] z2 C2 | D2 G2 B3 [=Fd] | [Ec][Ec][DB][DB] [G,CE]4 | %14
w: |||
[M:9/8] [G,D]3 [B,DG] [DGB]2 [DGd]3 |[M:4/4] [CFA]2 [CFA][DFB] [G,B,G]4 |] %16
w: ||
V:2
 [G,D]3 [G,D] [G,CD]2 [G,B,D]2 | [C,A,]2 [C,G,]2 [G,,G,]4 | [C,G,]3 [C,G,] [C,C]2 z C | %3
 A,,2 G,,2 D,4 | G,3 G, G,2 G,2 | C,2 C,2 G,,4 | C,3 C, B,,D, [G,B,]2 | %7
 [D,F,C]2 [D,F,C][D,F,D] [G,,G,]4 | [C,G,]3 [C,G,] [C,G,]2 [C,G,]2 | %9
 [G,,G,][G,,G,][B,,G,][D,F,D] [G,D]4 | [D,F,D]3 [D,F,D] [D,F,D]2 [D,A,D][D,F,D] | %11
 [A,,E,][A,,E,][A,,A,][A,,G,] [D,F,]4 | [G,B,]2[K:treble] [G,B,D]2 [G,DG]3[K:bass] [B,,G,] | %13
 [C,G,][C,G,][C,G,][C,G,] C,4 |[M:9/8] B,,3 G,, G,,2 B,,3 |[M:4/4] D,2 D,D, G,,4 |] %16
V:3
 x8 | x8 | z4 z2 [C,G,]2 | x8 | x8 | x8 | x8 | x8 | x8 | x8 | x8 | x8 | x2[K:treble] x5[K:bass] x | %13
 x8 |[M:9/8] x9 |[M:4/4] x8 |] %16
V:4
 x8 | x8 | x8 | x8 | x8 | x8 | z4 .G,2 z2 | x8 | x8 | x8 | x8 | z4 D4 | x8 | x8 |[M:9/8] x9 | %15
[M:4/4] x8 |] %16

